X:1
T: Limerick Junction
C:
R:Reel
Q: 232
K:D
M:4/4
L:1/8
|:AG|F2 FD FA GF|EF ED CD EG|FA d2 cd e2|((3efd) ((3edB) AG FE|
FG FE FA GF|EF ED CD EG|FA dA BG FE|D2 DE D2:|
|:fg|af df ge ce|fd cd BA FA|BG FG E2 gf|((3efd) ((3edB) A2 fg|
af cf ge ce|fd cd BA GE|FA df ge ce|d2 dc d2:|
